packages/appstore/src/assets/svgs/wallet/wechat-pay-dark.svg

<svg width="128" height="80" viewBox="0 0 128 80" fill="none" xmlns="http://www.w3.org/2000/svg">
<path d="M17.9481 43.8564C17.7834 43.9382 17.6004 43.9812 17.4163 43.9791C16.9918 43.975 16.6021 43.7449 16.3935 43.3757L16.3117 43.2018L13.0798 36.1039C13.0389 36.0251 13.0184 35.9372 13.0184 35.8482C13.0184 35.5209 13.2843 35.255 13.6116 35.255C13.7405 35.2581 13.8653 35.301 13.9696 35.3777L17.7845 38.0983C18.2549 38.4051 18.844 38.4695 19.3697 38.2721L37.3089 30.2844C33.6147 26.175 28.3107 23.882 22.7857 24.0047C12.9673 24.0047 5 30.6424 5 38.8244C5.11864 43.3286 7.40348 47.4994 11.1365 50.0236C11.4669 50.2568 11.6561 50.6424 11.6377 51.0464C11.6326 51.1711 11.6111 51.2949 11.5763 51.4146C11.2695 52.5396 10.799 54.3294 10.7683 54.4112C10.7223 54.5503 10.6916 54.6945 10.6763 54.8408C10.6763 55.1681 10.9422 55.434 11.2695 55.434C11.3902 55.4299 11.5078 55.39 11.607 55.3215L15.5139 52.9896C15.7962 52.8137 16.1215 52.7186 16.4549 52.7135C16.6339 52.7165 16.8128 52.74 16.9867 52.785C18.8706 53.3322 20.8241 53.6073 22.7857 53.6033C32.6042 53.6033 40.5715 46.9656 40.5715 38.7835C40.5541 36.3453 39.8443 33.9622 38.526 31.9106L18.0708 43.7848L17.9481 43.8564ZM56.4242 38.6096L56.1787 39.4994C55.9742 40.2256 55.7901 40.8802 55.6264 41.545C55.4219 40.5938 55.1457 39.4994 54.9003 38.6096L53.2332 32.3095V32.197H52.1082L50.2467 38.671C49.9195 39.7551 49.6229 40.7165 49.4081 41.5961C49.2547 40.9211 49.0603 40.154 48.8558 39.3665L47.0557 32.3504V32.2379H45.7671L48.7842 43.6927V43.8052H49.807L51.7604 37.2392C52.0979 36.1243 52.3536 35.1936 52.5377 34.4777C52.7014 35.2857 52.9366 36.1755 53.223 37.2289L54.9003 43.6927V43.8052H55.9946L59.4004 32.4322L59.4618 32.2379H58.3061L56.4242 38.6096ZM63.5426 35.2141C61.2721 35.2141 59.7584 37.0346 59.7584 39.7347C59.6592 40.826 60.0294 41.908 60.7781 42.7089C61.5257 43.5097 62.5802 43.9525 63.6755 43.928C64.5735 43.9689 65.4674 43.7827 66.2733 43.3859L66.4574 43.2939L65.9256 42.3734H65.7926C65.1514 42.6649 64.4498 42.7989 63.7471 42.762C62.0391 42.762 61.0164 41.637 60.9448 39.6938H66.754V39.5301C66.7765 39.3532 66.7765 39.1752 66.754 38.9983C66.754 38.1821 66.5464 37.3803 66.1506 36.6664C65.5973 35.7091 64.5551 35.1405 63.4505 35.1936L63.5426 35.2141ZM61.0368 38.671C61.1105 37.3875 62.1547 36.3739 63.4403 36.3391C63.9834 36.3166 64.5142 36.512 64.9131 36.8812C65.3416 37.3793 65.5779 38.0144 65.5779 38.671H61.0368ZM76.2452 42.3529C75.5017 42.67 74.7008 42.8254 73.8929 42.8132C71.0803 42.8132 69.403 41.0438 69.403 38.0676C69.403 35.0914 71.1314 33.1277 74.0258 33.1277C74.7622 33.1174 75.4945 33.2606 76.1736 33.547L76.2963 33.6084L76.8589 32.5856L76.6441 32.5345C75.8024 32.1458 74.8798 31.9679 73.9542 32.0129C70.4462 32.0129 68.0938 34.4368 68.0938 38.0471C68.0938 42.3938 71.0496 43.928 73.5758 43.928C74.6292 43.9535 75.6745 43.7551 76.6441 43.345L76.8282 43.253L76.2759 42.3018L76.2452 42.3529ZM81.9113 35.2141C81.3068 35.21 80.7147 35.3808 80.2033 35.705C79.9057 35.8809 79.6387 36.1049 79.4158 36.3698V32.0129H78.1884V43.7848H79.4158V38.671C79.4004 38.4256 79.4321 38.1791 79.5078 37.9449C79.8259 36.9978 80.6973 36.3453 81.6965 36.3084C83.4045 36.3084 83.6602 37.8733 83.6602 38.8142V43.7848H84.8875V38.7733C84.8875 35.388 82.4022 35.2141 81.9113 35.2141ZM95.8514 33.6186H94.6548V35.48H93.2843V36.5028H94.6548V41.2893C94.5873 42.0134 94.7796 42.7385 95.1969 43.3348C95.5743 43.7787 96.1399 44.018 96.7208 43.9791C97.1186 43.9904 97.5145 43.9249 97.8867 43.7848L98.0811 43.6927L97.5594 42.762H97.4572C97.2383 42.806 97.0153 42.8265 96.7924 42.8234C96.1276 42.8234 95.8514 42.4041 95.8514 41.4018V36.4823H98.1117V35.4596H95.8514V33.6186ZM104.14 32.1151C103.324 32.1151 102.51 32.1867 101.706 32.3299H101.522V43.7848H102.749V39.0801C103.125 39.1415 103.504 39.1691 103.885 39.1619C105.165 39.2376 106.416 38.761 107.321 37.8528C107.897 37.1962 108.194 36.3412 108.15 35.4698C108.188 34.5974 107.854 33.7485 107.229 33.1379C106.376 32.4148 105.277 32.0487 104.161 32.1151H104.14ZM102.77 33.3015C103.217 33.2351 103.668 33.2044 104.12 33.2095C105.92 33.2095 106.943 34.0584 106.943 35.5311C106.943 37.0039 105.859 38.0471 103.977 38.0471C103.572 38.0553 103.167 38.0164 102.77 37.9346V33.3015ZM121.681 35.3982L119.697 40.7165C119.533 41.1359 119.39 41.545 119.277 41.8927C119.154 41.5143 119.011 41.1154 118.878 40.7677L116.833 35.5823V35.4391H115.524L118.592 43.0893C118.633 43.1732 118.659 43.2632 118.674 43.3552C118.658 43.4473 118.631 43.5363 118.592 43.6212C118.256 44.334 117.784 44.9732 117.201 45.503C116.821 45.8641 116.373 46.1463 115.882 46.3315L115.667 46.4133L116.587 47.3747C117.009 47.1476 117.397 46.8664 117.743 46.536C118.766 45.6155 119.461 44.2143 120.474 41.6165L122.908 35.6027L123 35.3982H121.681ZM92.3229 41.6677V38.5994C92.3229 36.4107 91.3002 35.255 89.3569 35.255C88.4907 35.2571 87.6428 35.5046 86.9126 35.9709L86.7796 36.0425L87.3114 36.9732L87.4546 36.8812C87.9957 36.5273 88.6287 36.3422 89.2751 36.3494C89.7364 36.3217 90.1895 36.4803 90.5331 36.7891C90.9269 37.2545 91.1161 37.86 91.0547 38.4665C89.586 38.3233 88.1194 38.7569 86.9637 39.6733C86.4523 40.1765 86.1762 40.8699 86.1966 41.5859C86.1864 42.2517 86.4564 42.8919 86.9402 43.3481C87.425 43.8052 88.0795 44.0384 88.7433 43.9893C89.6556 44.0016 90.5311 43.6314 91.157 42.9666L91.2388 43.8052H92.415V43.5496C92.3352 42.939 92.3015 42.3243 92.3127 41.7086L92.3229 41.6677ZM87.9455 40.3381C88.8098 39.7152 89.8734 39.435 90.932 39.5506H91.0752V41.0336C91.0762 41.1727 91.0547 41.3097 91.0138 41.4427C90.6917 42.3427 89.8213 42.9277 88.866 42.8848C88.4794 42.9022 88.1041 42.7487 87.8402 42.4654C87.5763 42.1821 87.4505 41.7966 87.4955 41.412C87.4822 40.9937 87.6459 40.5897 87.9455 40.2972V40.3381ZM114.511 41.6677V38.5994C114.511 36.4107 113.488 35.255 111.555 35.255C110.727 35.2611 109.915 35.4872 109.203 35.9096L109.08 35.9914L109.612 36.9016L109.735 36.8198C110.262 36.5089 110.862 36.3463 111.474 36.3494C111.935 36.3217 112.388 36.4803 112.732 36.7891C113.125 37.2545 113.314 37.86 113.253 38.4665C111.784 38.3233 110.318 38.7569 109.162 39.6733C108.651 40.1765 108.375 40.8699 108.395 41.5859C108.385 42.2517 108.655 42.8919 109.139 43.3481C109.623 43.8052 110.278 44.0384 110.942 43.9893C111.854 44.0016 112.729 43.6314 113.355 42.9666L113.437 43.8052H114.624V43.5496C114.532 42.94 114.491 42.3243 114.501 41.7086L114.511 41.6677ZM113.274 41.0438C113.276 41.1829 113.255 41.32 113.212 41.4529C112.89 42.3529 112.02 42.938 111.064 42.895C110.683 42.9114 110.314 42.762 110.052 42.4859C109.788 42.2097 109.658 41.8323 109.694 41.4529C109.681 41.0346 109.844 40.6306 110.144 40.3381C111.008 39.7152 112.072 39.435 113.13 39.5506H113.274V41.0438Z" fill="#39A935"/>
</svg>

<svg width="128" height="80" fill="none" xmlns="http://www.w3.org/2000/svg"><path d="M17.948 43.856a1.188 1.188 0 0 1-1.555-.48l-.081-.174-3.232-7.098a.555.555 0 0 1-.062-.256c0-.327.266-.593.594-.593a.63.63 0 0 1 .358.123l3.815 2.72c.47.307 1.059.371 1.585.174l17.939-7.988a18.963 18.963 0 0 0-14.523-6.28C12.967 24.005 5 30.643 5 38.825a13.963 13.963 0 0 0 6.136 11.2c.33.233.52.618.502 1.022a1.548 1.548 0 0 1-.062.369c-.306 1.125-.777 2.914-.808 2.996-.046.14-.076.283-.092.43 0 .327.266.593.594.593a.634.634 0 0 0 .337-.112l3.907-2.332c.282-.176.608-.271.94-.276.18.003.359.026.533.071 1.884.547 3.837.822 5.799.818 9.818 0 17.785-6.637 17.785-14.82a12.884 12.884 0 0 0-2.045-6.872L18.071 43.785l-.123.071zm38.476-5.246-.245.89a63.96 63.96 0 0 0-.553 2.045 55.982 55.982 0 0 0-.726-2.935l-1.667-6.3v-.113h-1.125l-1.861 6.474c-.328 1.084-.624 2.046-.839 2.925a77.87 77.87 0 0 0-.552-2.23l-1.8-7.016v-.112h-1.289l3.017 11.455v.112h1.023l1.953-6.566c.338-1.115.594-2.045.778-2.761.163.808.399 1.697.685 2.75l1.677 6.465v.112h1.095L59.4 32.432l.062-.194h-1.156l-1.882 6.372zm7.119-3.396c-2.27 0-3.785 1.82-3.785 4.52a3.845 3.845 0 0 0 3.917 4.194 5.332 5.332 0 0 0 2.598-.542l.184-.092-.531-.92h-.133a4.388 4.388 0 0 1-2.046.388c-1.708 0-2.73-1.125-2.802-3.068h5.809v-.164a2.103 2.103 0 0 0 0-.532c0-.816-.208-1.618-.603-2.332a2.955 2.955 0 0 0-2.7-1.472l.092.02zm-2.506 3.457a2.475 2.475 0 0 1 2.403-2.332 2.045 2.045 0 0 1 1.473.542c.429.498.665 1.133.665 1.79h-4.541zm15.208 3.682a5.77 5.77 0 0 1-2.352.46c-2.813 0-4.49-1.77-4.49-4.745 0-2.977 1.728-4.94 4.623-4.94a5.34 5.34 0 0 1 2.148.419l.122.061.563-1.022-.215-.051a5.748 5.748 0 0 0-2.69-.522c-3.508 0-5.86 2.424-5.86 6.034 0 4.347 2.956 5.881 5.482 5.881a7.413 7.413 0 0 0 3.068-.583l.184-.092-.552-.951-.03.05zm5.666-7.139a3.149 3.149 0 0 0-1.708.491c-.297.176-.564.4-.787.665v-4.357h-1.228v11.772h1.228V38.67a1.963 1.963 0 0 1 .092-.726 2.403 2.403 0 0 1 2.189-1.637c1.707 0 1.963 1.565 1.963 2.506v4.97h1.228v-5.01c0-3.386-2.486-3.56-2.977-3.56zm13.94-1.595h-1.196v1.861h-1.37v1.023h1.37v4.786c-.068.724.125 1.45.542 2.046a1.84 1.84 0 0 0 1.524.644c.398.011.793-.054 1.166-.194l.194-.092-.522-.931h-.102a3.152 3.152 0 0 1-.665.061c-.664 0-.94-.419-.94-1.421v-4.92h2.26V35.46h-2.26v-1.841zm8.289-1.504c-.816 0-1.63.072-2.434.215h-.184v11.455h1.227V39.08a6.3 6.3 0 0 0 1.136.082c1.28.076 2.531-.401 3.436-1.31a3.357 3.357 0 0 0 .829-2.382 3.073 3.073 0 0 0-.921-2.332 4.345 4.345 0 0 0-3.068-1.023h-.021zm-1.37 1.186a8.529 8.529 0 0 1 1.35-.092c1.8 0 2.823.85 2.823 2.322 0 1.473-1.084 2.516-2.966 2.516-.405.008-.81-.03-1.207-.112V33.3zm18.911 2.097-1.984 5.319c-.164.419-.307.828-.42 1.176a24.122 24.122 0 0 0-.399-1.125l-2.045-5.186v-.143h-1.309l3.068 7.65a.953.953 0 0 1 .082.266 1.076 1.076 0 0 1-.082.266 5.996 5.996 0 0 1-1.391 1.882c-.38.361-.828.643-1.319.828l-.215.082.92.962c.422-.227.81-.509 1.156-.839 1.023-.92 1.718-2.322 2.731-4.92l2.434-6.013.092-.205h-1.319zm-29.358 6.27v-3.069c0-2.188-1.023-3.344-2.966-3.344a4.561 4.561 0 0 0-2.444.716l-.133.072.531.93.144-.092a3.258 3.258 0 0 1 1.82-.532c.461-.027.914.131 1.258.44.394.465.583 1.071.522 1.678a5.696 5.696 0 0 0-4.091 1.206 2.579 2.579 0 0 0-.767 1.913 2.373 2.373 0 0 0 2.546 2.403 3.254 3.254 0 0 0 2.414-1.022l.082.838h1.176v-.255a12.45 12.45 0 0 1-.102-1.841l.01-.041zm-4.377-1.33a4.307 4.307 0 0 1 2.986-.787h.143v1.483c.001.139-.02.276-.061.409a2.177 2.177 0 0 1-2.148 1.442 1.321 1.321 0 0 1-1.37-1.473c-.014-.418.15-.822.45-1.115v.041zm26.565 1.33v-3.069c0-2.188-1.023-3.344-2.956-3.344a4.678 4.678 0 0 0-2.352.655l-.123.081.532.91.123-.081a3.387 3.387 0 0 1 1.739-.47c.461-.028.914.13 1.258.44.393.465.582 1.07.521 1.677a5.696 5.696 0 0 0-4.091 1.206 2.582 2.582 0 0 0-.767 1.913 2.373 2.373 0 0 0 2.547 2.403 3.253 3.253 0 0 0 2.413-1.022l.082.838h1.187v-.255a11.125 11.125 0 0 1-.123-1.841l.01-.041zm-1.237-.624c.002.139-.019.276-.062.409a2.177 2.177 0 0 1-2.148 1.442 1.317 1.317 0 0 1-1.37-1.442c-.013-.418.15-.822.45-1.115a4.306 4.306 0 0 1 2.986-.787h.144v1.493z" fill="#39A935"/></svg>
